X:195
T:Apron. Ru2.195, The
%%VWML:RutherfordVol2-2249-p98-0
F:http://www.vwml.org/record/RutherfordVol2/2249/p98
Z:vmp.Ruairidh Greig 2015 www.village-music-project.org.uk
M:6/8
L:1/8
Q:1/4=100
N:The first four notes in this bar are all quavers in the MS
K:Ddor
f|cAA fAA|aAA cGG|cAA fAA|aAcd2f|
cAA fAA|aAA cGG|(A>GF) fga|ge^cd2:|
|:c|(A_B/c/d) cAF|(A/_B/cA) BGc| "NB"(A_B/c/d) cAF|f>(gf/e/) "tr"d2c|
(A_B/c/d) cAF|(A/_B/cA) BGc|AGF fga|ge^cd2:|
W:Cast off & Hands across with the 3d. Couple .| Cast up and
W:Hands across with the top Couple :| Cross over two Couples,
W:Lead up to the Top, foot it & cast off :|
T:Any thing. Ru2.196
B:RUTHERFORD Complete Collection of 200 Country Dances Vol.2; 1759.
Z:vmp.Ruairidh Greig 2015 www.village-music-project.org.uk
M:9/8
L:1/8
Q:1/4=100
K:Amix
c2e ecfe2A|c2e eceg2B|c2e ecf aeg|fdf ece g2B:|
|:a2(a a)cAa2e|a2 a acAg2B|a2 a acA aeg|fdf eceg2B:|
W:Turn your Partner with your right
W:Hand & cast off .| Turn her again
W:with yr. Left & cast up :| Cross over
W:half Figure Right Hand & Left :|
